X: 1
T: Bebop Etude
C: Bebop Etude Generator
M: 4/4
K: C
L: 1/8
B'B'C''^C'' D''^A'_D''B'|C''D''B'_D'' C''A'C''^A'|B'G'E'_G' F'D'^D'E'|F'_E'C'^C' D'B^GA|
_B_BA_A GEF^F|G^D_GF E^FA_A|G^CE_E D_E=C^C|D^FAG ^GD'B_D'|
C'^FG^G A_E'C'^C'|D'_BG^G A^A_D'C'|B_D'^AC' BF_A^F|GA^AB C'=A'C''^A'|
B'